X:07c
T:Temperance Reel
C:Traditional
S:Jim Coon to CoMandoList TOW
M:4/4
L:1/8
Q:1/8=460
K:G
DF|:"G"GFGA Bdef|gfga gedB|"Em"AGE2 E3D|"D"EGAB AGED|!
"G"GFGA Bdef|gfga gedB|"Em"AGE2 EFGA||1 B"D"GAF "G"G2DF:|2 B"D"GAF "G"G3
e|!
"Em"[e2B2]de e2ef|gfga gfe2|"D"D[dF][dF]d d2de|fafa e2BA|!
"Em"B2[ed]e e2ef|gfga gfed|BGE2 EFGA|"D"BGAF "G"G3e|!
"Em"B2de "G"e2ef|gfga fgeD|"D"D[dF]dd [d3F3]e|fafa edB[eA]|!
"Em"B2[ed]e e2ef|gfga gfed|BGE2 EFGA|"D"BGAF "G"G4|!
